X: 1
T: Stumpie
T: Wap an' Rowe
O: Trad (1734)
R: strathspey
Z: John Chambers <jc@trillian.mit.edu>
M: 4/4
L: 1/8
Q:60
K: A
d |: "A"c<e a2 a/g/f/e/ a2 | c<e a2  "E7"bd | "A"c<e a2 a/g/f/e/ a2 | c<e "E7"B>d "A"c<A A2 :|
B |: "A"c<e e>c "D"d<f f>d | "A"c<e e>c "E7"cd | "A"c<e e>c "D"d<f f>d | "A"c<a "E7"B>d "A"c<A A2 :|



